X:1
T:Nettleton, 87.87 D
T:Nettleton, 87.87 D
T:John Wyeth, 1813
T:Public Domain Courtesy of the Cyber Hymnal™
C:John Wyeth, 1813
Z:Public Domain
Z:Courtesy of the Cyber Hymnal™
%%score ( 1 2 ) ( 3 4 )
L:1/8
Q:1/4=100
M:3/4
K:Eb
V:1 treble 
V:2 treble 
V:3 bass 
V:4 bass 
V:1
 [EG][DF] | E2 E2 [EG][EB] | [DF]2 [DF]2 [EG][EB] | [Ec]2 [EB]2 [EG][DF] | E4 [EG][DF] | %5
 E2 E2 [EG][EB] | [DF]2 [DF]2 [EG][EB] | [Ec]2 [EB]2 [EG][DF] | E4 [EB] (c/d/) | %9
 [Ge]2 [Bd]2 [Ac][GB] | (cB) [EG]2 [EB] (c/d/) | [Ge]2 [Bd]2 [Ac][FB] | [Ge]4 [EG][DF] | %13
 E2 E2 [EG][EB] | [DF]2 [DF]2 [EG][EB] | [Ec]2 [EB]2 [EG][DF] | E4 |] %17
V:2
 x2 | E2 E2 x2 | x6 | x6 | E4 x2 | E2 E2 x2 | x6 | x6 | E4 A x | x6 | E2 x2 A x | x6 | x6 | %13
 E2 E2 x2 | x6 | x6 | E4 |] %17
V:3
 [E,B,][B,,A,] | [E,G,]2 [E,G,]2 [E,B,][G,B,] | [B,,B,]2 [B,,B,]2 [E,B,][G,B,] | %3
 A,2 [E,G,]2 [B,,B,][B,,A,] | [E,G,]4 [E,B,][B,,A,] | [E,G,]2 [E,G,]2 [E,B,][G,B,] | %6
 [B,,B,]2 [B,,B,]2 [E,B,][G,B,] | A,2 [E,G,]2 [B,,B,][B,,A,] | [E,G,]4 [G,B,][F,A,] | %9
 [E,B,]2 [G,B,]2 [A,E][A,E] | (A,G,) [E,B,]2 [G,B,][F,A,] | [E,B,]2 [G,B,]2 [A,E][B,D] | %12
 [E,B,]4 [E,B,][B,,A,] | [E,G,]2 [E,G,]2 [E,B,][G,B,] | [B,,B,]2 [B,,B,]2 [E,B,][G,B,] | %15
 A,2 [E,G,]2 [B,,B,][B,,A,] | [E,G,]4 |] %17
V:4
 x2 | x6 | x6 | A,2 x4 | x6 | x6 | x6 | A,2 x4 | x6 | x6 | E,2 x4 | x6 | x6 | x6 | x6 | A,2 x4 | %16
 x4 |] %17

